X:1
T:Title
%%score { 1 | 2 }
L:1/8
Q:1/4=100
M:6/8
K:Ab
V:1 treble nm="Grand Piano"
V:2 bass 
V:1
 [Ec][Ec][Ec] [Ec][EB][EA] | [DF][FA][FA] [FA]3 | [EG]2 [GB] [GB]3 |[M:5/8] A2 c c2 |[M:1/8] A | %5
w: Mrs.~W.~T.~Morris * * * * *|||||
[M:3/4] cc c[Ec] [EB][EA] | [DF][FA] [FA] [FA]3 | [EG]2 [GB] [GB]3 | %8
w: |||
[M:15/16] [Ac]->[Ac][DEB][CEA]3/2- [CEA]3 |[M:3/4] ce ee c[EA] | [DF]2 [FA] [FA]3 | %11
w: |||
 [EG]2 [GB][GB] [FA][GB] | c2 e e3 | ce ee c[EA] | [DF]2 [FA] [FA]3 | [EG]2 [GB] [GB]3 | %16
w: |||||
[M:15/16] [Ac]->[Ac][DEB][CEA]3/2- [CEA]3 |] %17
w: |
V:2
 [A,,A,][A,,A,][A,,A,] [A,,A,][B,,G,][C,A,] | [D,A,][D,D][D,D] [D,D]3 | [E,B,]2 [E,E] [E,E]3 | %3
[M:5/8][K:treble] [A,CE]2 [A,EA] [A,EA]2 |[M:1/8] [A,CE] | %5
[M:3/4] [A,E][K:bass][A,E] [A,E][A,,A,] [B,,G,][C,A,] | [D,A,][D,D] [D,D] [D,D]3 | %7
 [E,B,]2 [E,E] [E,E]3 |[M:15/16] [E,E]->[E,E]E,A,,3/2- A,,3 | %9
[M:3/4][K:treble] [A,E][A,CA] [A,CA][A,CA] [A,E][K:bass][C,A,] | [D,A,]2 [D,D] [D,D]3 | %11
 [E,B,]2 [E,E] [E,E]2 [E,E] | [A,EA]2 [A,CA] [A,CA]3 | %13
 [A,EA][A,CA] [A,CA][A,CA][K:bass] [A,E][C,A,] | [D,A,]2 [D,D] [D,D]3 | [E,B,]2 [E,E] [E,E]3 | %16
[M:15/16] [E,E]->[E,E]E,A,,3/2- A,,3 |] %17

